brandFactory_export/2.Regular/Formacion_2Regular (1).svg

<?xml version="1.0" encoding="UTF-8"?>
<svg width="24px" height="24px" viewBox="0 0 24 24" version="1.1" xmlns="http://www.w3.org/2000/svg" xmlns:xlink="http://www.w3.org/1999/xlink">
    <title>2.Regular/Formacion_2Regular (1)</title>
    <g id="Symbols" stroke="none" stroke-width="1" fill="none" fill-rule="evenodd">
        <g id="2.Regular/Formacion_2Regular-(1)" fill="#5CB615" fill-rule="nonzero">
            <path d="M7.39495798,19.2016807 C7.31428571,19.2655462 7.2,19.2689076 7.11932773,19.2016807 C5.97647059,18.2941176 4.47731092,17.8773109 3.41512605,17.6823529 L3.41512605,15.8806723 L6.64201681,17.3327731 C6.99495798,17.4907563 7.40168067,17.4941176 7.75462185,17.3327731 L11.0991597,15.8302521 L11.0957983,17.6890756 C10.0369748,17.8806723 8.53781513,18.2941176 7.39495798,19.2016807 Z M7.1697479,10.8991597 L12.8403361,13.4470588 L7.2302521,15.994958 L1.55966387,13.4470588 L7.1697479,10.8991597 Z M13.5865546,12.1865546 L7.75462185,9.56470588 C7.40168067,9.40672269 6.99495798,9.40672269 6.64201681,9.56470588 L4.25210084,10.6369748 L4.25210084,6.49915966 C4.25210084,5.78655462 4.41008403,5.26218487 4.71932773,4.94285714 C5.03865546,4.61344538 5.57647059,4.44537815 6.31932773,4.44537815 L20.0638655,4.43865546 C20.8033613,4.43865546 21.3411765,4.60672269 21.6638655,4.93613445 C21.9731092,5.25546218 22.1310924,5.77983193 22.1310924,6.49243697 L22.1310924,13.0168067 C22.1310924,13.7361345 21.9731092,14.2672269 21.6605042,14.5932773 C21.3378151,14.9294118 20.8,15.1008403 20.0638655,15.1008403 L12.7058824,15.1042017 L13.5831933,14.7109244 C14.0773109,14.4890756 14.3966387,13.994958 14.3966387,13.4504202 C14.4067227,12.902521 14.087395,12.4084034 13.5865546,12.1865546 Z M22.9008403,17.1243697 L12.5478992,17.1243697 L12.5478992,16.5462185 L20.0672269,16.5428571 C21.2033613,16.5428571 22.087395,16.2235294 22.6890756,15.594958 C23.2672269,14.989916 23.5596639,14.1193277 23.5596639,13.0168067 L23.5596639,6.49579832 C23.5596639,5.39327731 23.2638655,4.52941176 22.6857143,3.93109244 C22.087395,3.31260504 21.2067227,3 20.0672269,3 L6.32268908,3 C5.17983193,3 4.29915966,3.31596639 3.70084034,3.93109244 C3.11932773,4.52941176 2.82689076,5.39327731 2.82689076,6.49579832 L2.82689076,11.2756303 L0.813445378,12.1831933 C0.309243697,12.4117647 0,12.8957983 0,13.4470588 C0,13.9915966 0.319327731,14.4890756 0.813445378,14.707563 L1.9697479,15.2319328 L1.9697479,17.6857143 C1.9697479,18.3983193 2.47394958,19.0033613 3.16638655,19.1310924 C4.0605042,19.292437 5.31764706,19.6352941 6.22521008,20.3546218 C6.8302521,20.8352941 7.68739496,20.8352941 8.28907563,20.3546218 C9.19327731,19.6352941 10.4504202,19.292437 11.3478992,19.1310924 C11.7109244,19.0638655 12.0168067,18.8621849 12.2285714,18.589916 L22.897479,18.589916 C23.297479,18.5865546 23.6235294,18.2605042 23.6201938,17.8605042 C23.6235294,17.4504202 23.297479,17.1243697 22.9008403,17.1243697 Z" id="Formacion_2Regular-(1)"></path>
        </g>
    </g>
</svg>

<svg width="24" height="24" viewBox="0 0 24 24" xmlns="http://www.w3.org/2000/svg"><path d="M7.395 19.202a.218.218 0 01-.276 0c-1.143-.908-2.642-1.325-3.704-1.52v-1.801l3.227 1.452c.353.158.76.161 1.113 0l3.344-1.503-.003 1.86c-1.059.19-2.558.604-3.701 1.512zm-.225-8.303l5.67 2.548-5.61 2.548-5.67-2.548L7.17 10.9zm6.417 1.288L7.755 9.565a1.365 1.365 0 00-1.113 0l-2.39 1.072V6.499c0-.712.158-1.237.467-1.556.32-.33.857-.498 1.6-.498l13.745-.006c.74 0 1.277.168 1.6.497.31.32.467.844.467 1.556v6.525c0 .72-.158 1.25-.47 1.576-.323.336-.861.508-1.597.508l-7.358.003.877-.393c.494-.222.814-.716.814-1.26a1.353 1.353 0 00-.81-1.264zm9.314 4.937H12.548v-.578l7.52-.003c1.135 0 2.02-.32 2.621-.948.578-.605.87-1.476.87-2.578V6.496c0-1.103-.295-1.967-.873-2.565-.599-.618-1.48-.931-2.619-.931H6.323c-1.143 0-2.024.316-2.622.931-.582.598-.874 1.462-.874 2.565v4.78l-2.014.907A1.37 1.37 0 000 13.447c0 .545.32 1.042.813 1.26l1.157.525v2.454c0 .712.504 1.317 1.196 1.445.895.161 2.152.504 3.06 1.224.604.48 1.461.48 2.063 0 .904-.72 2.161-1.063 3.059-1.224a1.45 1.45 0 00.88-.541h10.67c.4-.003.726-.33.722-.73a.724.724 0 00-.72-.736z" fill="#5CB615" fill-rule="nonzero"/></svg>
